data/logo.svg

<?xml version="1.0" encoding="utf-8"?>
<!-- Generator: Adobe Illustrator 25.4.1, SVG Export Plug-In . SVG Version: 6.00 Build 0)  -->
<svg version="1.1" id="Layer_1" xmlns="http://www.w3.org/2000/svg" xmlns:xlink="http://www.w3.org/1999/xlink" x="0px" y="0px"
	 viewBox="0 0 640 512" width="53.87" height="43.61" style="enable-background:new 0 0 640 512;" xml:space="preserve">
<style type="text/css">
	.st0{fill:url(#SVGID_1_);}
</style>
<linearGradient id="SVGID_1_" gradientUnits="userSpaceOnUse" x1="103.2103" y1="430.2101" x2="605.0043" y2="26.9732">
	<stop  offset="3.048528e-02" style="stop-color:#5DE2F4"/>
	<stop  offset="0.1881" style="stop-color:#58DFF2"/>
	<stop  offset="0.3839" style="stop-color:#48D7EC"/>
	<stop  offset="0.5989" style="stop-color:#2FCAE2"/>
	<stop  offset="0.7817" style="stop-color:#14BBD7"/>
</linearGradient>
<path class="st0" d="M414.8,40.8l-128,448c-4.9,17-22.6,26.8-39.6,22c-17-4.9-26.8-22.6-22-39.6l128-448c4.9-17,22.6-26.8,39.6-22
	C409.8,6.1,419.6,23.8,414.8,40.8L414.8,40.8z M518.6,121.4l112,112c12.5,12.5,12.5,32.7,0,45.2l-112,112
	c-12.5,12.5-32.7,12.5-45.2,0s-12.5-32.7,0-45.2l89.3-89.4l-89.3-89.4c-12.5-12.5-12.5-32.7,0-45.2S506.1,108.9,518.6,121.4
	L518.6,121.4z M166.6,166.6L77.2,256l89.4,89.4c12.5,12.5,12.5,32.7,0,45.2s-32.7,12.5-45.2,0l-112-112c-12.5-12.5-12.5-32.7,0-45.2
	l112-112c12.5-12.5,32.7-12.5,45.2,0S179.1,154.1,166.6,166.6L166.6,166.6z"/>
</svg>

<svg xmlns="http://www.w3.org/2000/svg" viewBox="344.564 330.278 111.737 91.218" width="53.87" height="43.61">
  <!--! Font Awesome Pro 6.1.2 by @fontawesome - https://fontawesome.com License - https://fontawesome.com/license (Commercial License) Copyright 2022 Fonticons, Inc. -->
  <linearGradient id="grad" gradientUnits="userSpaceOnUse" x1="420.97" y1="331.28" x2="420.97" y2="418.5">
    <stop style="stop-color: #06b6d4;stop-opacity: 1" offset="0%"></stop>
    <stop style="stop-color: #67e8f9;stop-opacity: 1" offset="100%"></stop>
  </linearGradient>
  <path fill="url(#grad)" d="M414.8 40.79L286.8 488.8C281.9 505.8 264.2 515.6 247.2 510.8C230.2 505.9 220.4 488.2 225.2 471.2L353.2 23.21C358.1 6.216 375.8-3.624 392.8 1.232C409.8 6.087 419.6 23.8 414.8 40.79H414.8zM518.6 121.4L630.6 233.4C643.1 245.9 643.1 266.1 630.6 278.6L518.6 390.6C506.1 403.1 485.9 403.1 473.4 390.6C460.9 378.1 460.9 357.9 473.4 345.4L562.7 256L473.4 166.6C460.9 154.1 460.9 133.9 473.4 121.4C485.9 108.9 506.1 108.9 518.6 121.4V121.4zM166.6 166.6L77.25 256L166.6 345.4C179.1 357.9 179.1 378.1 166.6 390.6C154.1 403.1 133.9 403.1 121.4 390.6L9.372 278.6C-3.124 266.1-3.124 245.9 9.372 233.4L121.4 121.4C133.9 108.9 154.1 108.9 166.6 121.4C179.1 133.9 179.1 154.1 166.6 166.6V166.6z" />
</svg>
